static/fa/svgs/solid/gears.svg

<svg xmlns="http://www.w3.org/2000/svg" viewBox="0 0 640 512"><!--! Font Awesome Free 6.1.1 by @fontawesome - https://fontawesome.com License - https://fontawesome.com/license/free (Icons: CC BY 4.0, Fonts: SIL OFL 1.1, Code: MIT License) Copyright 2022 Fonticons, Inc.--><path d="M286.3 155.1c1.1 6.8 1.7 13.8 1.7 20 0 8-.6 15-1.7 21.8l22.2 19.8c7 6.3 9.9 15.4 6.2 25-2.3 4.4-4.8 10.5-7.6 15.5l-3.1 5.4c-3.9 5-6.3 9.8-9.8 14.5-5.7 7.6-15.7 10.1-24.7 7.1l-28.3-9.3c-10.7 8.9-22.9 16-36.2 21l-6.9 29c-1.1 9.3-8.3 16.7-17.7 17.9-6.7.8-13.5 1.2-20.4 1.2-6.9 0-13.7-.4-20.4-1.2-9.4-1.2-17.5-8.6-18.6-17.9l-6.9-29c-12.4-5-24.6-12.1-35.35-21l-28.22 9.3c-8.99 3-19.01.5-24.71-7.1-3.54-4.7-6.84-9.6-9.88-14.6l-3.02-5.3c-2.79-5-5.328-10.2-7.596-15.5-3.704-9.6-.866-18.7 6.196-25l22.18-19.8c-1.12-6.8-2.6-13.8-2.6-21.8 0-6.2 1.48-13.2 2.6-20l-22.18-19.8c-7.062-7.2-9.9-16.3-6.196-25 2.268-6.2 4.806-10.51 7.586-15.54l3.04-5.25c3.03-5.05 6.33-9.93 9.87-14.62 5.7-7.55 15.72-10.06 24.71-7.1l28.22 9.3c10.75-8.84 22.95-15.96 35.35-20.94l6.9-29.07c1.1-9.28 9.2-16.71 18.6-17.849A169.2 169.2 0 0 1 160 8c6.9 0 13.7.418 20.4 1.23 9.4 1.14 16.6 8.57 17.7 17.85l6.9 29.07c13.3 4.98 25.5 12.1 36.2 20.94l28.3-9.3c9-2.96 19-.45 24.7 7.1 3.5 4.67 5.9 9.53 9.8 14.55l3.1 5.39c2.8 5.01 5.3 10.17 7.6 15.47 3.7 8.7.8 17.8-6.2 25l-22.2 19.8zm-126.3-28c-26.5 0-48 22.4-48 48 0 27.4 21.5 48 48 48s48-20.6 48-48c0-25.6-21.5-48-48-48zm324.9 351.2c-6.8 1.1-13.8 1.7-20.9 1.7-7.1 0-14.1-.6-20.9-1.7l-19.8 22.2c-7.2 7-16.3 9.9-25 6.2-5.3-2.3-10.5-4.8-15.5-7.6l-5.4-3.1c-5-3.9-9.8-6.3-14.5-9.8-7.6-5.7-10.1-15.7-7.1-24.7l9.3-28.3c-8.9-10.7-16-22.9-21-36.2l-29-6.9c-9.3-1.1-16.7-8.3-17.9-17.7-.8-6.7-1.2-13.5-1.2-20.4 0-6.9.4-13.7 1.2-20.4 1.2-9.4 8.6-17.5 17.9-18.6l29-6.9c5-12.4 12.1-24.6 21-35.3l-9.3-28.3c-3-9-.5-19 7.1-24.7 4.7-3.5 9.6-7.7 14.6-9.9l5.3-3c5-2.8 9.3-5.3 15.5-7.6 8.7-3.7 17.8-.8 25 6.2l19.8 22.2c6.8-1.1 13.8-1.7 20.9-1.7 7.1 0 14.1.6 20.9 1.7l19.8-22.2c6.3-7 15.4-9.9 25-6.2 5.3 2.3 10.5 4.8 15.5 7.6l5.3 3c5 2.2 9.9 6.4 14.6 9.9 7.6 5.7 10.1 15.7 7.1 24.7l-9.3 28.3c8.9 10.7 16 22.9 21 35.3l29 6.9c9.3 1.1 16.7 9.2 17.9 18.6.8 6.7 1.2 13.5 1.2 20.4 0 6.9-.4 13.7-1.2 20.4-1.2 9.4-8.6 16.6-17.9 17.7l-29 6.9c-5 13.3-12.1 25.5-21 36.2l9.3 28.3c3 9 .5 19-7.1 24.7-4.7 3.5-9.5 5.9-14.5 9.8l-5.4 3.1c-5 2.8-11.1 5.3-15.5 7.6-9.6 3.7-18.7.8-25-6.2l-19.8-22.2zM512 352c0-26.5-21.5-48-48-48s-48 21.5-48 48 21.5 48 48 48 48-21.5 48-48z"/></svg>

<svg xmlns="http://www.w3.org/2000/svg" viewBox="0 0 640 512"><!--! Font Awesome Free 6.1.1 by @fontawesome - https://fontawesome.com License - https://fontawesome.com/license/free (Icons: CC BY 4.0, Fonts: SIL OFL 1.1, Code: MIT License) Copyright 2022 Fonticons, Inc. --><path d="M286.3 155.1C287.4 161.9 288 168.9 288 175.1C288 183.1 287.4 190.1 286.3 196.9L308.5 216.7C315.5 223 318.4 232.1 314.7 241.7C312.4 246.1 309.9 252.2 307.1 257.2L304 262.6C300.1 267.6 297.7 272.4 294.2 277.1C288.5 284.7 278.5 287.2 269.5 284.2L241.2 274.9C230.5 283.8 218.3 290.9 205 295.9L198.1 324.9C197 334.2 189.8 341.6 180.4 342.8C173.7 343.6 166.9 344 160 344C153.1 344 146.3 343.6 139.6 342.8C130.2 341.6 122.1 334.2 121 324.9L114.1 295.9C101.7 290.9 89.5 283.8 78.75 274.9L50.53 284.2C41.54 287.2 31.52 284.7 25.82 277.1C22.28 272.4 18.98 267.5 15.94 262.5L12.92 257.2C10.13 252.2 7.592 247 5.324 241.7C1.62 232.1 4.458 223 11.52 216.7L33.7 196.9C32.58 190.1 31.1 183.1 31.1 175.1C31.1 168.9 32.58 161.9 33.7 155.1L11.52 135.3C4.458 128.1 1.62 119 5.324 110.3C7.592 104.1 10.13 99.79 12.91 94.76L15.95 89.51C18.98 84.46 22.28 79.58 25.82 74.89C31.52 67.34 41.54 64.83 50.53 67.79L78.75 77.09C89.5 68.25 101.7 61.13 114.1 56.15L121 27.08C122.1 17.8 130.2 10.37 139.6 9.231C146.3 8.418 153.1 8 160 8C166.9 8 173.7 8.418 180.4 9.23C189.8 10.37 197 17.8 198.1 27.08L205 56.15C218.3 61.13 230.5 68.25 241.2 77.09L269.5 67.79C278.5 64.83 288.5 67.34 294.2 74.89C297.7 79.56 300.1 84.42 304 89.44L307.1 94.83C309.9 99.84 312.4 105 314.7 110.3C318.4 119 315.5 128.1 308.5 135.3L286.3 155.1zM160 127.1C133.5 127.1 112 149.5 112 175.1C112 202.5 133.5 223.1 160 223.1C186.5 223.1 208 202.5 208 175.1C208 149.5 186.5 127.1 160 127.1zM484.9 478.3C478.1 479.4 471.1 480 464 480C456.9 480 449.9 479.4 443.1 478.3L423.3 500.5C416.1 507.5 407 510.4 398.3 506.7C393 504.4 387.8 501.9 382.8 499.1L377.4 496C372.4 492.1 367.6 489.7 362.9 486.2C355.3 480.5 352.8 470.5 355.8 461.5L365.1 433.2C356.2 422.5 349.1 410.3 344.1 397L315.1 390.1C305.8 389 298.4 381.8 297.2 372.4C296.4 365.7 296 358.9 296 352C296 345.1 296.4 338.3 297.2 331.6C298.4 322.2 305.8 314.1 315.1 313L344.1 306.1C349.1 293.7 356.2 281.5 365.1 270.8L355.8 242.5C352.8 233.5 355.3 223.5 362.9 217.8C367.6 214.3 372.5 210.1 377.5 207.9L382.8 204.9C387.8 202.1 392.1 199.6 398.3 197.3C407 193.6 416.1 196.5 423.3 203.5L443.1 225.7C449.9 224.6 456.9 224 464 224C471.1 224 478.1 224.6 484.9 225.7L504.7 203.5C511 196.5 520.1 193.6 529.7 197.3C535 199.6 540.2 202.1 545.2 204.9L550.5 207.9C555.5 210.1 560.4 214.3 565.1 217.8C572.7 223.5 575.2 233.5 572.2 242.5L562.9 270.8C571.8 281.5 578.9 293.7 583.9 306.1L612.9 313C622.2 314.1 629.6 322.2 630.8 331.6C631.6 338.3 632 345.1 632 352C632 358.9 631.6 365.7 630.8 372.4C629.6 381.8 622.2 389 612.9 390.1L583.9 397C578.9 410.3 571.8 422.5 562.9 433.2L572.2 461.5C575.2 470.5 572.7 480.5 565.1 486.2C560.4 489.7 555.6 492.1 550.6 496L545.2 499.1C540.2 501.9 534.1 504.4 529.7 506.7C520.1 510.4 511 507.5 504.7 500.5L484.9 478.3zM512 352C512 325.5 490.5 304 464 304C437.5 304 416 325.5 416 352C416 378.5 437.5 400 464 400C490.5 400 512 378.5 512 352z"/></svg>
